; generated by PrusaSlicer 2.7.1 on 2024-01-31 at 14:50:24 UTC

; 

; external perimeters extrusion width = 4.50mm
; perimeters extrusion width = 4.50mm
; infill extrusion width = 4.50mm
; solid infill extrusion width = 4.50mm
; top infill extrusion width = 4.00mm
; first layer extrusion width = 6.00mm

M104 S200 ; set temperature
;TYPE:Custom
G28 ; home all axes
G1 Z5 F5000 ; lift nozzle
M109 S200 ; set temperature and wait for it to be reached
G21 ; set units to millimeters
G90 ; use absolute coordinates
M82 ; use absolute distances for extrusion
G92 E0
; Filament gcode
M107
;LAYER_CHANGE
;Z:3
;HEIGHT:3
G1 Z3 F7800
G1 E-2 F2400
G92 E0
G1 X61.622 Y61.438 F7800
G1 E2 F2400
;TYPE:Skirt/Brim
;WIDTH:6
G1 F1800
G1 X64.032 Y59.639 E2.96139
G1 X66.83 Y58.536 E3.92283
G1 X69.56 Y58.203 E4.80201
G1 X130.44 Y58.203 E24.26378
G1 X133.421 Y58.602 E25.22523
G1 X136.193 Y59.768 E26.18657
G1 X138.562 Y61.622 E27.14823
G1 X140.361 Y64.032 E28.10962
G1 X141.464 Y66.83 E29.07106
G1 X141.797 Y69.56 E29.95024
G1 X141.797 Y130.44 E49.41201
G1 X141.398 Y133.421 E50.37346
G1 X140.232 Y136.193 E51.3348
G1 X138.378 Y138.562 E52.29646
G1 X135.968 Y140.361 E53.25785
G1 X133.17 Y141.464 E54.21929
G1 X130.44 Y141.797 E55.09847
G1 X69.56 Y141.797 E74.56024
G1 X66.579 Y141.398 E75.52169
G1 X63.807 Y140.232 E76.48303
G1 X61.438 Y138.378 E77.44469
G1 X59.639 Y135.968 E78.40608
G1 X58.536 Y133.17 E79.36752
G1 X58.203 Y130.44 E80.2467
G1 X58.203 Y69.56 E99.70847
G1 X58.602 Y66.579 E100.66992
G1 X59.768 Y63.807 E101.63126
G1 X61.252 Y61.911 E102.40094
G1 E100.40094 F2400
G92 E0
G1 X61.252 Y61.911 F7800
G1 X77.916 Y88.14
G1 E2 F2400
;TYPE:Perimeter
;WIDTH:6
G1 F1800
G1 X86.505 Y93.479 E5.23291
G1 X86.505 Y106.521 E9.4021
G1 X77.916 Y111.86 E12.63501
G1 X77.916 Y88.74 E20.02588
G1 E18.02588 F2400
G92 E0
G1 X77.916 Y88.74 F7800
G1 X76.498 Y78.725
G1 E2 F2400
;TYPE:External perimeter
;WIDTH:5.12446
G1 F1800
G1 X76.516 Y78.534 E2.0513
;WIDTH:5.16362
G1 X76.574 Y78.259 E2.12712
;WIDTH:5.20279
G1 X76.632 Y77.985 E2.20333
;WIDTH:5.25224
G1 X76.657 Y77.875 E2.23436
;WIDTH:5.30169
G1 X76.682 Y77.766 E2.26545
;WIDTH:5.35115
G1 X76.707 Y77.656 E2.29714
;WIDTH:5.4006
G1 X76.731 Y77.547 E2.32883
;WIDTH:5.45006
G1 X76.756 Y77.437 E2.36119
;WIDTH:5.49951
G1 X76.781 Y77.327 E2.39388
;WIDTH:5.54897
G1 X76.805 Y77.218 E2.42655
;WIDTH:5.59425
G1 X76.828 Y77.154 E2.44664
;WIDTH:5.63954
G1 X76.851 Y77.09 E2.46692
;WIDTH:5.68483
G1 X76.873 Y77.026 E2.48728
;WIDTH:5.73012
G1 X76.896 Y76.962 E2.50792
;WIDTH:5.77541
G1 X76.919 Y76.898 E2.52875
;WIDTH:5.8207
G1 X76.941 Y76.834 E2.54966
G1 X77.01 Y76.811 E2.57213
;WIDTH:5.77343
G1 X77.078 Y76.787 E2.59421
;WIDTH:5.72617
G1 X77.147 Y76.764 E2.61627
;WIDTH:5.67891
G1 X77.215 Y76.74 E2.63794
;WIDTH:5.63164
G1 X77.284 Y76.716 E2.65969
;WIDTH:5.58438
G1 X77.352 Y76.693 E2.68086
;WIDTH:5.53712
G1 X77.421 Y76.669 E2.7022
;WIDTH:5.48985
G1 X77.489 Y76.645 E2.72306
;WIDTH:5.44259
G1 X77.558 Y76.622 E2.74389
;WIDTH:5.39533
G1 X77.626 Y76.598 E2.76434
;WIDTH:5.34806
G1 X77.695 Y76.575 E2.78476
;WIDTH:5.3008
G1 X77.82 Y76.553 E2.82004
;WIDTH:5.25757
G1 X77.944 Y76.531 E2.85472
;WIDTH:5.21434
G1 X78.069 Y76.51 E2.8893
;WIDTH:5.17111
G1 X78.194 Y76.488 E2.92359
;WIDTH:5.12788
G1 X78.319 Y76.466 E2.95756
;WIDTH:5.08465
G1 X78.444 Y76.445 E2.99115
;WIDTH:5.04142
G1 X78.824 Y76.428 E3.09099
;WIDTH:5.00835
G1 X121.389 Y76.428 E14.17874
;WIDTH:5.04829
G1 X121.63 Y76.448 E14.24231
;WIDTH:5.08823
G1 X121.872 Y76.468 E14.30672
;WIDTH:5.12817
G1 X122.113 Y76.488 E14.37144
;WIDTH:5.1731
G1 X122.203 Y76.511 E14.39655
;WIDTH:5.21803
G1 X122.293 Y76.533 E14.42184
;WIDTH:5.26296
G1 X122.384 Y76.556 E14.44772
;WIDTH:5.30789
G1 X122.474 Y76.578 E14.47351
;WIDTH:5.35282
G1 X122.565 Y76.601 E14.49989
;WIDTH:5.39775
G1 X122.655 Y76.623 E14.52618
;WIDTH:5.44268
G1 X122.745 Y76.645 E14.55272
;WIDTH:5.48761
G1 X122.836 Y76.668 E14.57985
;WIDTH:5.53254
G1 X122.896 Y76.69 E14.5985
;WIDTH:5.57747
G1 X122.956 Y76.713 E14.61742
;WIDTH:5.6224
G1 X123.016 Y76.735 E14.63641
;WIDTH:5.66733
G1 X123.077 Y76.758 E14.65596
;WIDTH:5.71226
G1 X123.137 Y76.78 E14.67529
;WIDTH:5.75719
G1 X123.197 Y76.803 E14.6949
G1 X123.221 Y76.875 E14.71806
;WIDTH:5.70926
G1 X123.245 Y76.947 E14.741
;WIDTH:5.66134
G1 X123.269 Y77.02 E14.76401
;WIDTH:5.61341
G1 X123.293 Y77.092 E14.78652
;WIDTH:5.56549
G1 X123.317 Y77.164 E14.80881
;WIDTH:5.51756
G1 X123.341 Y77.237 E14.83116
;WIDTH:5.46964
G1 X123.365 Y77.309 E14.85302
;WIDTH:5.42171
G1 X123.389 Y77.381 E14.87466
;WIDTH:5.37378
G1 X123.413 Y77.454 E14.89635
;WIDTH:5.32586
G1 X123.437 Y77.526 E14.91756
;WIDTH:5.27793
G1 X123.461 Y77.667 E14.95712
;WIDTH:5.23063
G1 X123.484 Y77.808 E14.99623
;WIDTH:5.18333
G1 X123.508 Y77.949 E15.03498
;WIDTH:5.13603
G1 X123.531 Y78.09 E15.07328
;WIDTH:5.08872
G1 X123.555 Y78.231 E15.11122
;WIDTH:5.04142
G1 X123.572 Y78.611 E15.21106
;WIDTH:5.00835
G1 X123.572 Y121.389 E26.35428
;WIDTH:5.04829
G1 X123.552 Y121.63 E26.41785
;WIDTH:5.08823
G1 X123.532 Y121.872 E26.48226
;WIDTH:5.12816
G1 X123.512 Y122.113 E26.54698
;WIDTH:5.1731
G1 X123.489 Y122.203 E26.57209
;WIDTH:5.21803
G1 X123.467 Y122.293 E26.59738
;WIDTH:5.26296
G1 X123.444 Y122.384 E26.62326
;WIDTH:5.30789
G1 X123.422 Y122.474 E26.64905
;WIDTH:5.35282
G1 X123.399 Y122.565 E26.67543
;WIDTH:5.39775
G1 X123.377 Y122.655 E26.70172
;WIDTH:5.44268
G1 X123.355 Y122.745 E26.72826
;WIDTH:5.48761
G1 X123.332 Y122.836 E26.75539
;WIDTH:5.53254
G1 X123.31 Y122.896 E26.77404
;WIDTH:5.57747
G1 X123.287 Y122.956 E26.79296
;WIDTH:5.6224
G1 X123.265 Y123.016 E26.81195
;WIDTH:5.66733
G1 X123.242 Y123.077 E26.8315
;WIDTH:5.71226
G1 X123.22 Y123.137 E26.85083
;WIDTH:5.75719
G1 X123.197 Y123.197 E26.87044
G1 X123.125 Y123.221 E26.8936
;WIDTH:5.70926
G1 X123.053 Y123.245 E26.91654
;WIDTH:5.66134
G1 X122.98 Y123.269 E26.93955
;WIDTH:5.61341
G1 X122.908 Y123.293 E26.96206
;WIDTH:5.56549
G1 X122.836 Y123.317 E26.98435
;WIDTH:5.51756
G1 X122.763 Y123.341 E27.0067
;WIDTH:5.46964
G1 X122.691 Y123.365 E27.02856
;WIDTH:5.42171
G1 X122.619 Y123.389 E27.0502
;WIDTH:5.37379
G1 X122.546 Y123.413 E27.07189
;WIDTH:5.32586
G1 X122.474 Y123.437 E27.0931
;WIDTH:5.27794
G1 X122.333 Y123.461 E27.13266
;WIDTH:5.23063
G1 X122.192 Y123.484 E27.17177
;WIDTH:5.18333
G1 X122.051 Y123.508 E27.21052
;WIDTH:5.13603
G1 X121.91 Y123.531 E27.24882
;WIDTH:5.08873
G1 X121.769 Y123.555 E27.28676
;WIDTH:5.04142
G1 X121.389 Y123.572 E27.3866
;WIDTH:5.00835
G1 X78.824 Y123.572 E38.47435
;WIDTH:5.05168
G1 X78.573 Y123.55 E38.54064
;WIDTH:5.095
G1 X78.322 Y123.528 E38.60758
;WIDTH:5.13833
G1 X78.071 Y123.507 E38.67515
;WIDTH:5.18707
G1 X77.977 Y123.482 E38.70152
;WIDTH:5.23581
G1 X77.883 Y123.458 E38.72811
;WIDTH:5.28455
G1 X77.789 Y123.434 E38.75498
;WIDTH:5.33329
G1 X77.695 Y123.409 E38.7822
;WIDTH:5.38203
G1 X77.6 Y123.385 E38.80991
;WIDTH:5.43077
G1 X77.506 Y123.36 E38.8377
;WIDTH:5.47951
G1 X77.412 Y123.336 E38.8657
;WIDTH:5.52825
G1 X77.318 Y123.312 E38.89398
;WIDTH:5.57699
G1 X77.255 Y123.287 E38.91394
;WIDTH:5.62574
G1 X77.192 Y123.263 E38.93399
;WIDTH:5.67448
G1 X77.13 Y123.239 E38.95395
;WIDTH:5.72322
G1 X77.067 Y123.214 E38.9745
;WIDTH:5.77196
G1 X77.004 Y123.19 E38.99513
;WIDTH:5.8207
G1 X76.941 Y123.166 E39.01596
G1 X76.917 Y123.089 E39.04088
;WIDTH:5.77293
G1 X76.894 Y123.012 E39.06548
;WIDTH:5.72516
G1 X76.87 Y122.935 E39.08994
;WIDTH:5.67739
G1 X76.846 Y122.859 E39.11388
;WIDTH:5.62962
G1 X76.822 Y122.782 E39.13788
;WIDTH:5.58185
G1 X76.798 Y122.705 E39.16165
;WIDTH:5.53408
G1 X76.774 Y122.629 E39.18491
;WIDTH:5.48631
G1 X76.75 Y122.552 E39.20822
;WIDTH:5.43854
G1 X76.726 Y122.475 E39.2313
;WIDTH:5.39077
G1 X76.702 Y122.399 E39.25388
;WIDTH:5.34299
G1 X76.665 Y122.212 E39.30734
;WIDTH:5.29929
G1 X76.628 Y122.026 E39.36003
;WIDTH:5.25558
G1 X76.591 Y121.839 E39.4125
;WIDTH:5.21187
G1 X76.554 Y121.653 E39.4642
;WIDTH:5.16817
G1 X76.516 Y121.466 E39.51573
;WIDTH:5.12446
G1 X76.495 Y121.159 E39.59802
;WIDTH:5.08142
G1 X76.473 Y120.851 E39.6798
;WIDTH:5.07266
G1 X76.478 Y120.673 E39.72687
;WIDTH:5.10694
G1 X76.482 Y120.494 E39.77456
;WIDTH:5.14122
G1 X76.487 Y120.315 E39.82263
;WIDTH:5.18617
G1 X76.497 Y120.216 E39.84961
;WIDTH:5.23112
G1 X76.506 Y120.117 E39.87683
;WIDTH:5.27606
G1 X76.516 Y120.018 E39.90434
;WIDTH:5.32101
G1 X76.526 Y119.919 E39.93212
;WIDTH:5.36674
G1 X76.552 Y119.822 E39.96043
;WIDTH:5.41247
G1 X76.578 Y119.726 E39.98874
;WIDTH:5.4582
G1 X76.604 Y119.629 E40.0176
;WIDTH:5.50393
G1 X76.629 Y119.533 E40.04638
;WIDTH:5.55075
G1 X76.669 Y119.442 E40.07549
;WIDTH:5.59757
G1 X76.709 Y119.351 E40.10488
;WIDTH:5.64439
G1 X76.749 Y119.26 E40.13455
;WIDTH:5.69121
G1 X76.789 Y119.169 E40.16449
;WIDTH:5.73941
G1 X76.841 Y119.086 E40.19428
;WIDTH:5.7876
G1 X76.892 Y119.003 E40.22419
;WIDTH:5.8358
G1 X76.943 Y118.92 E40.25438
;WIDTH:5.884
G1 X76.995 Y118.837 E40.28501
;WIDTH:5.92266
G1 X77.082 Y118.75 E40.32377
;WIDTH:5.96133
G1 X77.169 Y118.664 E40.36259
;WIDTH:6
G1 X77.257 Y118.577 E40.40215
G1 X91.861 Y109.498 E45.89929
G1 X91.861 Y90.502 E51.97182
G1 X77.257 Y81.423 E57.46896
G1 X77.169 Y81.336 E57.50852
;WIDTH:5.96133
G1 X77.082 Y81.25 E57.54734
;WIDTH:5.92266
G1 X76.995 Y81.163 E57.5861
;WIDTH:5.88399
G1 X76.943 Y81.08 E57.61673
;WIDTH:5.8358
G1 X76.892 Y80.997 E57.64692
;WIDTH:5.7876
G1 X76.841 Y80.914 E57.67683
;WIDTH:5.73941
G1 X76.789 Y80.831 E57.70662
;WIDTH:5.69121
G1 X76.749 Y80.74 E57.73656
;WIDTH:5.64439
G1 X76.709 Y80.649 E57.76623
;WIDTH:5.59757
G1 X76.669 Y80.558 E57.79562
;WIDTH:5.55075
G1 X76.629 Y80.467 E57.82473
;WIDTH:5.50393
G1 X76.604 Y80.371 E57.85351
;WIDTH:5.4582
G1 X76.578 Y80.274 E57.88237
;WIDTH:5.41247
G1 X76.552 Y80.178 E57.91068
;WIDTH:5.36674
G1 X76.526 Y80.081 E57.93899
;WIDTH:5.32101
G1 X76.519 Y79.971 E57.96976
;WIDTH:5.27114
G1 X76.512 Y79.861 E58.0002
;WIDTH:5.22128
G1 X76.504 Y79.751 E58.03033
;WIDTH:5.17141
G1 X76.497 Y79.641 E58.06011
;WIDTH:5.12155
G1 X76.49 Y79.531 E58.08957
;WIDTH:5.07168
G1 X76.486 Y79.324 E58.14428
G1 X79.073 Y76.272 F7800
G1 E56.14428 F2400
G92 E0
G1 X82.21 Y104.134 F7800
G1 E2 F2400
;TYPE:Perimeter
;WIDTH:3.87657
G1 F1800
G1 X82.21 Y95.866 E3.59524
G1 E1.59524 F2400
G92 E0
G1 X82.21 Y95.866 F7800
G1 X127.562 Y127.562
G1 E2 F2400
;TYPE:External perimeter
;WIDTH:5.75719
G1 F1800
G1 X125.005 Y127.562 E2.78035
G1 X124.885 Y127.584 E2.81758
;WIDTH:5.71226
G1 X124.764 Y127.607 E2.85484
;WIDTH:5.66733
G1 X124.644 Y127.629 E2.89142
;WIDTH:5.6224
G1 X124.523 Y127.652 E2.92802
;WIDTH:5.57747
G1 X124.402 Y127.674 E2.96423
;WIDTH:5.53254
G1 X124.282 Y127.697 E2.99988
;WIDTH:5.48761
G1 X124.137 Y127.718 E3.04224
;WIDTH:5.44567
G1 X123.993 Y127.739 E3.08395
;WIDTH:5.40374
G1 X123.848 Y127.76 E3.12557
;WIDTH:5.3618
G1 X123.703 Y127.78 E3.16679
;WIDTH:5.31987
G1 X123.559 Y127.801 E3.2074
;WIDTH:5.27794
G1 X123.318 Y127.826 E3.27441
;WIDTH:5.22801
G1 X123.077 Y127.851 E3.3407
;WIDTH:5.17809
G1 X122.836 Y127.876 E3.40627
;WIDTH:5.12817
G1 X122.474 Y127.899 E3.50335
;WIDTH:5.08324
G1 X122.113 Y127.921 E3.59918
;WIDTH:5.03831
G1 X121.389 Y127.936 E3.78911
;WIDTH:5.00835
G1 X78.824 Y127.936 E14.87686
;WIDTH:5.04142
G1 X78.064 Y127.92 E15.07638
;WIDTH:5.08988
G1 X77.691 Y127.895 E15.17558
;WIDTH:5.13833
G1 X77.318 Y127.871 E15.27584
;WIDTH:5.17895
G1 X77.13 Y127.851 E15.32701
;WIDTH:5.21956
G1 X76.941 Y127.831 E15.37891
;WIDTH:5.26018
G1 X76.753 Y127.81 E15.43103
;WIDTH:5.3008
G1 X76.565 Y127.79 E15.48358
;WIDTH:5.34629
G1 X76.414 Y127.767 E15.52645
;WIDTH:5.39178
G1 X76.263 Y127.745 E15.56969
;WIDTH:5.43727
G1 X76.113 Y127.722 E15.6131
;WIDTH:5.48276
G1 X75.962 Y127.699 E15.65721
;WIDTH:5.52825
G1 X75.812 Y127.676 E15.70145
;WIDTH:5.57699
G1 X75.686 Y127.652 E15.73921
;WIDTH:5.62574
G1 X75.561 Y127.628 E15.77706
;WIDTH:5.67448
G1 X75.435 Y127.603 E15.81563
;WIDTH:5.72322
G1 X75.309 Y127.579 E15.85451
;WIDTH:5.77196
G1 X75.184 Y127.554 E15.89353
;WIDTH:5.8207
G1 X75.058 Y127.53 E15.93316
G1 X72.47 Y127.53 E16.73278
G1 X72.47 Y124.942 E17.5324
G1 X72.447 Y124.814 E17.57258
;WIDTH:5.77541
G1 X72.425 Y124.686 E17.61236
;WIDTH:5.73012
G1 X72.402 Y124.558 E17.65184
;WIDTH:5.68483
G1 X72.379 Y124.43 E17.69097
;WIDTH:5.63954
G1 X72.357 Y124.303 E17.7294
;WIDTH:5.59425
G1 X72.334 Y124.175 E17.76782
;WIDTH:5.54897
G1 X72.313 Y124.021 E17.81332
;WIDTH:5.50777
G1 X72.293 Y123.868 E17.85811
;WIDTH:5.46658
G1 X72.272 Y123.715 E17.90256
;WIDTH:5.42538
G1 X72.252 Y123.561 E17.94688
;WIDTH:5.38419
G1 X72.231 Y123.408 E17.99057
;WIDTH:5.34299
G1 X72.208 Y123.152 E18.06266
;WIDTH:5.29626
G1 X72.184 Y122.897 E18.13378
;WIDTH:5.24952
G1 X72.161 Y122.641 E18.20443
;WIDTH:5.20279
G1 X72.141 Y122.361 E18.28081
;WIDTH:5.16362
G1 X72.122 Y122.081 E18.35652
;WIDTH:5.12446
G1 X72.103 Y121.699 E18.4588
;WIDTH:5.08759
G1 X72.085 Y121.317 E18.56023
;WIDTH:5.05072
G1 X72.081 Y120.553 E18.76118
;WIDTH:5.09234
G1 X72.106 Y120.17 E18.86308
;WIDTH:5.14122
G1 X72.13 Y119.788 E18.96582
;WIDTH:5.18617
G1 X72.153 Y119.597 E19.01797
;WIDTH:5.23112
G1 X72.175 Y119.406 E19.07061
;WIDTH:5.27606
G1 X72.198 Y119.215 E19.1238
;WIDTH:5.32101
G1 X72.22 Y119.024 E19.17747
;WIDTH:5.36674
G1 X72.243 Y118.833 E19.2317
;WIDTH:5.41247
G1 X72.266 Y118.642 E19.28645
;WIDTH:5.4582
G1 X72.289 Y118.45 E19.34201
;WIDTH:5.50393
G1 X72.312 Y118.259 E19.39781
;WIDTH:5.55075
G1 X72.335 Y118.068 E19.45415
;WIDTH:5.59757
G1 X72.358 Y117.877 E19.51103
;WIDTH:5.64439
G1 X72.382 Y117.686 E19.56848
;WIDTH:5.69121
G1 X72.405 Y117.495 E19.62643
;WIDTH:5.73941
G1 X72.429 Y117.304 E19.68497
;WIDTH:5.7876
G1 X72.453 Y117.113 E19.74407
;WIDTH:5.8358
G1 X72.477 Y116.922 E19.80372
;WIDTH:5.884
G1 X72.502 Y116.731 E19.86396
;WIDTH:5.92266
G1 X72.521 Y116.476 E19.94452
;WIDTH:5.96133
G1 X72.54 Y116.221 E20.02567
;WIDTH:6
G1 X72.56 Y115.966 E20.10744
G1 X72.56 Y84.034 E30.31528
G1 X72.54 Y83.779 E30.39705
;WIDTH:5.96133
G1 X72.521 Y83.524 E30.4782
;WIDTH:5.92266
G1 X72.502 Y83.269 E30.55876
;WIDTH:5.88399
G1 X72.477 Y83.078 E30.619
;WIDTH:5.8358
G1 X72.453 Y82.887 E30.67865
;WIDTH:5.7876
G1 X72.429 Y82.696 E30.73775
;WIDTH:5.73941
G1 X72.405 Y82.505 E30.79629
;WIDTH:5.69121
G1 X72.382 Y82.314 E30.85424
;WIDTH:5.64439
G1 X72.358 Y82.123 E30.91169
;WIDTH:5.59757
G1 X72.335 Y81.932 E30.96857
;WIDTH:5.55075
G1 X72.312 Y81.741 E31.02491
;WIDTH:5.50393
G1 X72.289 Y81.55 E31.08071
;WIDTH:5.4582
G1 X72.266 Y81.358 E31.13627
;WIDTH:5.41247
G1 X72.243 Y81.167 E31.19102
;WIDTH:5.36674
G1 X72.22 Y80.976 E31.24525
;WIDTH:5.32101
G1 X72.198 Y80.785 E31.29892
;WIDTH:5.27606
G1 X72.175 Y80.594 E31.35211
;WIDTH:5.23112
G1 X72.153 Y80.403 E31.40475
;WIDTH:5.18617
G1 X72.13 Y80.212 E31.4569
;WIDTH:5.14122
G1 X72.106 Y79.83 E31.55964
;WIDTH:5.09234
G1 X72.081 Y79.447 E31.66154
;WIDTH:5.05072
G1 X72.085 Y78.683 E31.86249
;WIDTH:5.08759
G1 X72.103 Y78.301 E31.96392
;WIDTH:5.12446
G1 X72.122 Y77.919 E32.0662
;WIDTH:5.16362
G1 X72.141 Y77.639 E32.14191
;WIDTH:5.20279
G1 X72.161 Y77.359 E32.21829
;WIDTH:5.24952
G1 X72.184 Y77.103 E32.28894
;WIDTH:5.29626
G1 X72.208 Y76.848 E32.36006
;WIDTH:5.343
G1 X72.231 Y76.592 E32.43215
;WIDTH:5.38419
G1 X72.252 Y76.439 E32.47584
;WIDTH:5.42538
G1 X72.272 Y76.285 E32.52016
;WIDTH:5.46658
G1 X72.293 Y76.132 E32.56461
;WIDTH:5.50777
G1 X72.313 Y75.979 E32.6094
;WIDTH:5.54897
G1 X72.334 Y75.825 E32.6549
;WIDTH:5.59425
G1 X72.357 Y75.697 E32.69332
;WIDTH:5.63954
G1 X72.379 Y75.57 E32.73175
;WIDTH:5.68483
G1 X72.402 Y75.442 E32.77088
;WIDTH:5.73012
G1 X72.425 Y75.314 E32.81036
;WIDTH:5.77541
G1 X72.447 Y75.186 E32.85014
;WIDTH:5.8207
G1 X72.47 Y75.058 E32.89032
G1 X72.47 Y72.47 E33.68994
G1 X75.058 Y72.47 E34.48956
G1 X75.184 Y72.446 E34.52919
;WIDTH:5.77196
G1 X75.309 Y72.421 E34.56821
;WIDTH:5.72322
G1 X75.435 Y72.397 E34.60709
;WIDTH:5.67448
G1 X75.561 Y72.372 E34.64566
;WIDTH:5.62573
G1 X75.686 Y72.348 E34.68351
;WIDTH:5.57699
G1 X75.812 Y72.324 E34.72127
;WIDTH:5.52825
G1 X75.962 Y72.301 E34.76551
;WIDTH:5.48276
G1 X76.113 Y72.278 E34.80962
;WIDTH:5.43727
G1 X76.263 Y72.255 E34.85303
;WIDTH:5.39178
G1 X76.414 Y72.233 E34.89627
;WIDTH:5.34629
G1 X76.565 Y72.21 E34.93914
;WIDTH:5.3008
G1 X76.753 Y72.19 E34.99169
;WIDTH:5.26018
G1 X76.941 Y72.169 E35.04381
;WIDTH:5.21956
G1 X77.13 Y72.149 E35.09571
