; generated by PrusaSlicer 2.7.1 on 2024-02-07 at 04:16:27 UTC

; 

; external perimeters extrusion width = 4.50mm
; perimeters extrusion width = 4.50mm
; infill extrusion width = 4.50mm
; solid infill extrusion width = 4.50mm
; top infill extrusion width = 4.00mm
; first layer extrusion width = 6.00mm

M104 S200 ; set temperature
;TYPE:Custom
G28 ; home all axes
G1 Z5 F5000 ; lift nozzle
M109 S200 ; set temperature and wait for it to be reached
G21 ; set units to millimeters
G90 ; use absolute coordinates
M82 ; use absolute distances for extrusion
G92 E0
; Filament gcode
M107
;LAYER_CHANGE
;Z:3
;HEIGHT:3
G1 Z3 F7800
G1 E-2 F2400
G92 E0
G1 X23.735 Y9.991 F7800
G1 E2 F2400
;TYPE:Skirt/Brim
;WIDTH:6
G1 F1800
G1 X24.527 Y8.109 E15.64072
G1 X26.38 Y5.741 E35.72798
G1 X28.791 Y3.942 E55.82444
G1 X31.589 Y2.839 E75.91656
G1 X34.318 Y2.506 E94.28298
G1 X104.737 Y2.506 E564.71995
G1 X106.828 Y2.7 E578.74895
G1 X167.773 Y14.116 E992.97575
G1 X170.629 Y15.057 E1013.06432
G1 X173.139 Y16.714 E1033.15681
G1 X175.126 Y18.972 E1053.2504
G1 X176.45 Y21.672 E1073.33981
G1 X177.038 Y25.278 E1097.748
G1 X177.038 Y186.138 E2172.37971
G1 X176.64 Y189.119 E2192.47111
G1 X175.473 Y191.891 E2212.56374
G1 X173.62 Y194.259 E2232.651
G1 X171.209 Y196.058 E2252.74746
G1 X168.411 Y197.161 E2272.83958
G1 X165.682 Y197.494 E2291.206
G1 X104.737 Y197.494 E2698.35153
G1 X101.756 Y197.096 E2718.44293
G1 X98.984 Y195.929 E2738.53556
G1 X96.921 Y194.376 E2755.78608
G1 X26.502 Y127.558 E3404.29695
G1 X24.613 Y125.217 E3424.39261
G1 X23.405 Y122.463 E3444.48292
G1 X22.962 Y119.32 E3465.6874
G1 X22.962 Y13.862 E4170.20382
G1 X23.36 Y10.881 E4190.29522
G1 X23.502 Y10.544 E4192.73826
G1 E4190.73826 F2400
G92 E0
G1 X23.502 Y10.544 F7800
G1 X43.456 Y113.431
G1 E2 F2400
;TYPE:External perimeter
;WIDTH:4.35512
G1 F1800
G1 X105.059 Y113.431 E287.15739
;WIDTH:4.3831
G1 X105.515 Y113.445 E289.28511
;WIDTH:4.41109
G1 X105.971 Y113.459 E291.42876
;WIDTH:4.45307
G1 X106.198 Y113.48 E292.51187
;WIDTH:4.49505
G1 X106.426 Y113.501 E293.6117
;WIDTH:4.53702
G1 X106.654 Y113.522 E294.72352
;WIDTH:4.579
G1 X106.882 Y113.543 E295.84733
;WIDTH:4.62565
G1 X107.034 Y113.567 E296.61157
;WIDTH:4.67229
G1 X107.186 Y113.59 E297.38399
;WIDTH:4.71893
G1 X107.338 Y113.613 E298.16536
;WIDTH:4.76558
G1 X107.49 Y113.636 E298.95567
;WIDTH:4.81222
G1 X107.642 Y113.66 E299.75572
;WIDTH:4.85886
G1 X107.794 Y113.683 E300.56392
G1 X109.901 Y113.683 E311.64095
G1 X109.901 Y115.791 E322.72323
G1 X109.924 Y115.905 E323.33463
;WIDTH:4.8126
G1 X109.947 Y116.02 E323.94442
;WIDTH:4.76634
G1 X109.971 Y116.134 E324.54344
;WIDTH:4.72007
G1 X109.994 Y116.249 E325.1397
;WIDTH:4.67381
G1 X110.017 Y116.363 E325.72426
;WIDTH:4.62754
G1 X110.04 Y116.478 E326.30698
;WIDTH:4.58128
G1 X110.063 Y116.593 E326.88293
;WIDTH:4.53502
G1 X110.086 Y116.753 E327.66745
;WIDTH:4.48876
G1 X110.109 Y116.913 E328.44264
;WIDTH:4.44249
G1 X110.133 Y117.074 E329.21388
;WIDTH:4.39623
G1 X110.156 Y117.234 E329.97041
;WIDTH:4.34997
G1 X110.179 Y117.394 E330.71762
;WIDTH:4.3037
G1 X110.202 Y117.662 E331.94549
;WIDTH:4.25744
G1 X110.225 Y117.929 E333.15335
;WIDTH:4.21118
G1 X110.248 Y118.196 E334.34574
;WIDTH:4.16491
G1 X110.271 Y118.998 E337.86935
;WIDTH:4.11865
G1 X110.271 Y178.728 E596.74017
;WIDTH:4.15848
G1 X110.291 Y178.914 E597.56024
;WIDTH:4.19831
G1 X110.311 Y179.1 E598.3896
;WIDTH:4.23814
G1 X110.331 Y179.286 E599.22826
;WIDTH:4.27798
G1 X110.351 Y179.472 E600.07621
;WIDTH:4.32577
G1 X110.375 Y179.546 E600.43347
;WIDTH:4.37357
G1 X110.399 Y179.62 E600.79537
;WIDTH:4.42137
G1 X110.423 Y179.695 E601.16639
;WIDTH:4.46917
G1 X110.447 Y179.769 E601.53756
;WIDTH:4.51696
G1 X110.47 Y179.844 E601.91653
;WIDTH:4.56476
G1 X110.494 Y179.918 E602.29698
;WIDTH:4.61256
G1 X110.518 Y179.992 E602.68207
;WIDTH:4.66036
G1 X110.542 Y180.067 E603.07656
;WIDTH:4.70816
G1 X110.566 Y180.141 E603.47092
;WIDTH:4.75595
G1 X110.59 Y180.216 E603.8748
G1 X110.669 Y180.239 E604.29681
;WIDTH:4.70862
G1 X110.748 Y180.263 E604.7154
;WIDTH:4.6613
G1 X110.826 Y180.287 E605.12433
;WIDTH:4.61397
G1 X110.905 Y180.31 E605.53176
;WIDTH:4.56664
G1 X110.984 Y180.334 E605.93573
;WIDTH:4.51931
G1 X111.063 Y180.358 E606.33483
;WIDTH:4.47198
G1 X111.142 Y180.381 E606.72769
;WIDTH:4.42465
G1 X111.221 Y180.405 E607.11704
;WIDTH:4.37733
G1 X111.299 Y180.429 E607.49706
;WIDTH:4.33
G1 X111.536 Y180.452 E608.59182
;WIDTH:4.28267
G1 X111.772 Y180.476 E609.66845
;WIDTH:4.23534
G1 X112.009 Y180.5 E610.73554
;WIDTH:4.18801
G1 X157.547 Y180.5 E812.03751
;WIDTH:4.21486
G1 X157.856 Y180.486 E813.41521
;WIDTH:4.26019
G1 X157.994 Y180.464 E814.04553
;WIDTH:4.30552
G1 X158.131 Y180.441 E814.67998
;WIDTH:4.35084
G1 X158.269 Y180.418 E815.32684
;WIDTH:4.39617
G1 X158.406 Y180.396 E815.97624
;WIDTH:4.44421
G1 X158.472 Y180.372 E816.30913
;WIDTH:4.49224
G1 X158.538 Y180.348 E816.64622
;WIDTH:4.54028
G1 X158.605 Y180.324 E816.99209
;WIDTH:4.58832
G1 X158.671 Y180.299 E817.33931
;WIDTH:4.63636
G1 X158.737 Y180.275 E817.68903
;WIDTH:4.68439
G1 X158.803 Y180.251 E818.04296
;WIDTH:4.73243
G1 X158.869 Y180.227 E818.40109
;WIDTH:4.78047
G1 X158.935 Y180.203 E818.76343
;WIDTH:4.8285
G1 X159.001 Y180.179 E819.12998
;WIDTH:4.87654
G1 X159.067 Y180.155 E819.50074
;WIDTH:4.92458
G1 X159.133 Y180.131 E819.8757
;WIDTH:4.97261
G1 X159.199 Y180.107 E820.25487
;WIDTH:5.02065
G1 X159.265 Y180.083 E820.63825
G1 X159.287 Y180.008 E821.06493
;WIDTH:4.97708
G1 X159.309 Y179.933 E821.48736
;WIDTH:4.93351
G1 X159.331 Y179.857 E821.91068
;WIDTH:4.88994
G1 X159.352 Y179.782 E822.32316
;WIDTH:4.84637
G1 X159.374 Y179.707 E822.73285
;WIDTH:4.8028
G1 X159.396 Y179.631 E823.14327
;WIDTH:4.75923
G1 X159.416 Y179.518 E823.73231
;WIDTH:4.72002
G1 X159.435 Y179.405 E824.31487
;WIDTH:4.6808
G1 X159.455 Y179.292 E824.89269
;WIDTH:4.64159
G1 X159.474 Y179.179 E825.46405
;WIDTH:4.60237
G1 X159.487 Y178.954 E826.57681
;WIDTH:4.57623
G1 X159.501 Y178.728 E827.68741
;WIDTH:4.55009
G1 X159.501 Y27.553 E1564.23228
G1 X163.407 Y27.553 E1583.26284
G1 X163.407 Y29.506 E1592.77812
G1 X163.407 Y178.728 E2319.80772
;WIDTH:4.57623
G1 X163.394 Y179.179 E2322.02068
;WIDTH:4.60237
G1 X163.381 Y179.631 E2324.25328
;WIDTH:4.64159
G1 X163.361 Y179.857 E2325.38458
;WIDTH:4.6808
G1 X163.341 Y180.083 E2326.52697
;WIDTH:4.72002
G1 X163.322 Y180.309 E2327.68002
;WIDTH:4.75923
G1 X163.302 Y180.535 E2328.84461
;WIDTH:4.8028
G1 X163.28 Y180.686 E2329.63617
;WIDTH:4.84637
G1 X163.259 Y180.837 E2330.43528
;WIDTH:4.88994
G1 X163.237 Y180.987 E2331.23818
;WIDTH:4.93351
G1 X163.215 Y181.138 E2332.05461
;WIDTH:4.97708
G1 X163.193 Y181.288 E2332.87399
;WIDTH:5.02065
G1 X163.172 Y181.439 E2333.70624
G1 X163.172 Y183.628 E2345.65608
G1 X160.983 Y183.628 E2357.60592
G1 X160.876 Y183.65 E2358.20226
;WIDTH:4.97512
G1 X160.768 Y183.673 E2358.79879
;WIDTH:4.92958
G1 X160.661 Y183.696 E2359.38382
;WIDTH:4.88405
G1 X160.554 Y183.719 E2359.96263
;WIDTH:4.83851
G1 X160.446 Y183.741 E2360.53928
;WIDTH:4.79298
G1 X160.339 Y183.764 E2361.10566
;WIDTH:4.74744
G1 X160.232 Y183.787 E2361.66583
;WIDTH:4.70191
G1 X160.124 Y183.81 E2362.22473
;WIDTH:4.65637
G1 X159.981 Y183.831 E2362.94808
;WIDTH:4.613
G1 X159.838 Y183.853 E2363.66435
;WIDTH:4.56964
G1 X159.695 Y183.875 E2364.37279
;WIDTH:4.52627
G1 X159.552 Y183.896 E2365.07268
;WIDTH:4.4829
G1 X159.408 Y183.918 E2365.7702
;WIDTH:4.43954
G1 X159.265 Y183.94 E2366.45516
;WIDTH:4.39617
G1 X158.99 Y183.962 E2367.74631
;WIDTH:4.35084
G1 X158.715 Y183.985 E2369.02225
;WIDTH:4.30552
G1 X158.44 Y184.008 E2370.28258
;WIDTH:4.26019
G1 X158.164 Y184.03 E2371.53144
;WIDTH:4.21486
G1 X157.547 Y184.044 E2374.28028
;WIDTH:4.18801
G1 X112.009 Y184.044 E2575.58225
;WIDTH:4.22351
G1 X111.299 Y184.026 E2578.75328
;WIDTH:4.259
G1 X111.063 Y184.008 E2579.82051
;WIDTH:4.2945
G1 X110.826 Y183.991 E2580.90243
;WIDTH:4.33
G1 X110.59 Y183.973 E2581.99062
;WIDTH:4.37437
G1 X110.413 Y183.951 E2582.82053
;WIDTH:4.41874
G1 X110.235 Y183.928 E2583.66558
;WIDTH:4.46311
G1 X110.058 Y183.906 E2584.51523
;WIDTH:4.50748
G1 X109.881 Y183.884 E2585.37475
;WIDTH:4.55717
G1 X109.739 Y183.859 E2586.07851
;WIDTH:4.60687
G1 X109.597 Y183.834 E2586.7912
;WIDTH:4.65656
G1 X109.455 Y183.81 E2587.51198
;WIDTH:4.70626
G1 X109.313 Y183.785 E2588.24255
;WIDTH:4.75595
G1 X109.171 Y183.76 E2588.98205
G1 X107.115 Y183.76 E2599.52706
G1 X107.115 Y181.704 E2610.07207
G1 X107.092 Y181.58 E2610.7189
;WIDTH:4.70948
G1 X107.069 Y181.456 E2611.35842
;WIDTH:4.66301
G1 X107.045 Y181.332 E2611.99157
;WIDTH:4.61654
G1 X107.022 Y181.208 E2612.61647
;WIDTH:4.57007
G1 X106.999 Y181.084 E2613.23406
;WIDTH:4.5236
G1 X106.976 Y180.96 E2613.84434
;WIDTH:4.47713
G1 X106.951 Y180.774 E2614.74163
;WIDTH:4.42734
G1 X106.926 Y180.588 E2615.62726
;WIDTH:4.37755
G1 X106.901 Y180.402 E2616.50124
;WIDTH:4.32776
G1 X106.876 Y180.216 E2617.36356
;WIDTH:4.27798
G1 X106.854 Y179.921 E2618.70443
;WIDTH:4.23364
G1 X106.832 Y179.627 E2620.02448
;WIDTH:4.18931
G1 X106.81 Y179.332 E2621.33264
;WIDTH:4.14498
G1 X106.796 Y178.728 E2623.97093
;WIDTH:4.11865
G1 X106.796 Y118.998 E2882.84175
;WIDTH:4.16491
G1 X106.773 Y118.798 E2883.72588
;WIDTH:4.21118
G1 X106.75 Y118.597 E2884.62605
;WIDTH:4.25744
G1 X106.727 Y118.397 E2885.53342
;WIDTH:4.3037
G1 X106.704 Y118.196 E2886.45694
;WIDTH:4.34997
G1 X106.681 Y118.13 E2886.78002
;WIDTH:4.39623
G1 X106.658 Y118.063 E2887.11156
;WIDTH:4.44249
G1 X106.635 Y117.996 E2887.44718
;WIDTH:4.48876
G1 X106.611 Y117.929 E2887.78848
;WIDTH:4.53502
G1 X106.588 Y117.862 E2888.13228
;WIDTH:4.58128
G1 X106.565 Y117.795 E2888.48017
;WIDTH:4.62755
G1 X106.542 Y117.729 E2888.82745
;WIDTH:4.67381
G1 X106.519 Y117.662 E2889.18351
;WIDTH:4.72007
G1 X106.496 Y117.595 E2889.54366
;WIDTH:4.76634
G1 X106.473 Y117.528 E2889.9079
;WIDTH:4.8126
G1 X106.45 Y117.461 E2890.27622
;WIDTH:4.85886
G1 X106.426 Y117.394 E2890.65037
G1 X106.35 Y117.371 E2891.06782
;WIDTH:4.81222
G1 X106.274 Y117.348 E2891.48065
;WIDTH:4.76558
G1 X106.198 Y117.324 E2891.89038
;WIDTH:4.71893
G1 X106.123 Y117.301 E2892.28911
;WIDTH:4.67229
G1 X106.047 Y117.278 E2892.68808
;WIDTH:4.62565
G1 X105.971 Y117.255 E2893.08243
;WIDTH:4.579
G1 X105.857 Y117.234 E2893.65138
;WIDTH:4.53702
G1 X105.743 Y117.213 E2894.21426
;WIDTH:4.49505
G1 X105.629 Y117.192 E2894.77107
;WIDTH:4.45307
G1 X105.515 Y117.171 E2895.32181
;WIDTH:4.41109
G1 X105.287 Y117.157 E2896.39515
;WIDTH:4.3831
G1 X105.059 Y117.143 E2897.46051
;WIDTH:4.35512
G1 X43.456 Y117.143 E3182.6179
;WIDTH:4.39861
G1 X42.653 Y117.121 E3186.37992
;WIDTH:4.4421
G1 X42.385 Y117.099 E3187.65383
;WIDTH:4.4856
G1 X42.117 Y117.077 E3188.94232
;WIDTH:4.52909
G1 X41.849 Y117.056 E3190.24501
;WIDTH:4.57259
G1 X41.689 Y117.034 E3191.03642
;WIDTH:4.61608
G1 X41.528 Y117.012 E3191.8415
;WIDTH:4.65957
G1 X41.367 Y116.99 E3192.65539
;WIDTH:4.70307
G1 X41.206 Y116.969 E3193.47743
;WIDTH:4.74656
G1 X41.046 Y116.947 E3194.30388
;WIDTH:4.79005
G1 X40.931 Y116.925 E3194.90938
;WIDTH:4.83355
G1 X40.816 Y116.903 E3195.52123
;WIDTH:4.87704
G1 X40.701 Y116.882 E3196.13846
;WIDTH:4.92053
G1 X40.587 Y116.86 E3196.75778
;WIDTH:4.96403
G1 X40.472 Y116.838 E3197.38869
;WIDTH:5.00752
G1 X40.357 Y116.816 E3198.02595
;WIDTH:5.05101
G1 X40.242 Y116.795 E3198.66855
;WIDTH:5.09994
G1 X40.142 Y116.77 E3199.24145
;WIDTH:5.14887
G1 X40.041 Y116.746 E3199.82477
;WIDTH:5.1978
G1 X39.941 Y116.721 E3200.41025
;WIDTH:5.24674
G1 X39.84 Y116.697 E3201.00624
;WIDTH:5.29566
G1 X39.74 Y116.672 E3201.6043
;WIDTH:5.3446
G1 X39.64 Y116.648 E3202.20726
;WIDTH:5.39353
G1 X39.539 Y116.623 E3202.82365
;WIDTH:5.44246
G1 X39.439 Y116.599 E3203.43916
G1 X37.039 Y116.599 E3217.8035
G1 X37.039 Y114.2 E3232.16185
G1 X37.018 Y114.025 E3233.21676
;WIDTH:5.39907
G1 X36.996 Y113.85 E3234.26286
;WIDTH:5.35568
G1 X36.974 Y113.675 E3235.29941
;WIDTH:5.31229
G1 X36.953 Y113.5 E3236.32571
;WIDTH:5.26891
G1 X36.931 Y113.325 E3237.34318
;WIDTH:5.22552
G1 X36.908 Y112.998 E3239.21646
;WIDTH:5.17881
G1 X36.884 Y112.67 E3241.07669
;WIDTH:5.13209
G1 X36.861 Y112.343 E3242.91177
;WIDTH:5.08538
G1 X36.844 Y111.576 E3247.16182
;WIDTH:5.05197
G1 X36.844 Y21.607 E3741.82136
;WIDTH:5.09536
G1 X36.866 Y20.732 E3746.68109
;WIDTH:5.13875
G1 X36.888 Y20.44 E3748.32278
;WIDTH:5.18214
G1 X36.909 Y20.149 E3749.97426
;WIDTH:5.22552
G1 X36.931 Y19.857 E3751.64764
;WIDTH:5.26891
G1 X36.953 Y19.682 E3752.66511
;WIDTH:5.3123
G1 X36.974 Y19.507 E3753.69141
;WIDTH:5.35568
G1 X36.996 Y19.333 E3754.72213
;WIDTH:5.39907
G1 X37.018 Y19.158 E3755.76823
;WIDTH:5.44246
G1 X37.039 Y18.983 E3756.82314
G1 X37.039 Y16.583 E3771.18748
G1 X39.439 Y16.583 E3785.55182
G1 X39.539 Y16.559 E3786.16733
;WIDTH:5.39353
G1 X39.64 Y16.534 E3786.78372
;WIDTH:5.3446
G1 X39.74 Y16.51 E3787.38668
;WIDTH:5.29566
G1 X39.84 Y16.486 E3787.98336
;WIDTH:5.24674
G1 X39.941 Y16.461 E3788.5807
;WIDTH:5.1978
G1 X40.041 Y16.437 E3789.16483
;WIDTH:5.14887
G1 X40.142 Y16.412 E3789.74947
;WIDTH:5.09994
G1 X40.242 Y16.388 E3790.32105
;WIDTH:5.05101
G1 X40.357 Y16.366 E3790.96466
;WIDTH:5.00752
G1 X40.472 Y16.344 E3791.60192
;WIDTH:4.96403
G1 X40.587 Y16.322 E3792.23283
;WIDTH:4.92053
G1 X40.701 Y16.301 E3792.85116
;WIDTH:4.87704
G1 X40.816 Y16.279 E3793.46936
;WIDTH:4.83355
G1 X40.931 Y16.257 E3794.08121
;WIDTH:4.79005
G1 X41.046 Y16.235 E3794.68671
;WIDTH:4.74656
G1 X41.206 Y16.214 E3795.51248
;WIDTH:4.70307
G1 X41.367 Y16.192 E3796.33519
;WIDTH:4.65957
G1 X41.528 Y16.17 E3797.14908
;WIDTH:4.61608
G1 X41.689 Y16.148 E3797.95416
;WIDTH:4.57259
G1 X41.849 Y16.127 E3798.74491
;WIDTH:4.52909
G1 X42.17 Y16.102 E3800.30517
;WIDTH:4.48047
G1 X42.49 Y16.078 E3801.84077
;WIDTH:4.43186
G1 X42.81 Y16.054 E3803.35691
;WIDTH:4.38324
G1 X43.456 Y16.04 E3806.37058
;WIDTH:4.35512
G1 X102.56 Y16.04 E4079.96029
G1 X102.56 Y19.751 E4097.13834
G1 X43.456 Y19.751 E4370.72805
;WIDTH:4.39861
G1 X43.055 Y19.773 E4372.60884
;WIDTH:4.44832
G1 X42.94 Y19.798 E4373.16728
;WIDTH:4.49802
G1 X42.825 Y19.822 E4373.73202
;WIDTH:4.54773
G1 X42.71 Y19.847 E4374.30506
;WIDTH:4.59744
G1 X42.595 Y19.872 E4374.88539
;WIDTH:4.64715
G1 X42.481 Y19.897 E4375.46814
;WIDTH:4.69685
G1 X42.366 Y19.922 E4376.06306
;WIDTH:4.74656
G1 X42.251 Y19.947 E4376.66528
;WIDTH:4.79627
G1 X42.194 Y19.972 E4376.98764
;WIDTH:4.84597
G1 X42.136 Y19.996 E4377.31663
;WIDTH:4.89568
G1 X42.079 Y20.021 E4377.64671
;WIDTH:4.94539
G1 X42.021 Y20.046 E4377.98557
;WIDTH:4.99509
G1 X41.964 Y20.071 E4378.32336
;WIDTH:5.0448
G1 X41.907 Y20.096 E4378.66501
;WIDTH:5.09451
G1 X41.849 Y20.121 E4379.01561
;WIDTH:5.14421
G1 X41.792 Y20.146 E4379.36498
;WIDTH:5.19392
G1 X41.735 Y20.17 E4379.71597
;WIDTH:5.24363
G1 X41.677 Y20.195 E4380.07832
;WIDTH:5.29333
G1 X41.62 Y20.22 E4380.43927
;WIDTH:5.34304
G1 X41.562 Y20.245 E4380.80945
;WIDTH:5.39275
G1 X41.505 Y20.27 E4381.17812
;WIDTH:5.44246
G1 X41.448 Y20.295 E4381.55064
G1 X41.426 Y20.382 E4382.08774
;WIDTH:5.39907
G1 X41.404 Y20.47 E4382.62573
;WIDTH:5.35568
G1 X41.382 Y20.557 E4383.15312
;WIDTH:5.3123
G1 X41.361 Y20.645 E4383.67991
;WIDTH:5.26891
G1 X41.339 Y20.732 E4384.19758
;WIDTH:5.22552
G1 X41.317 Y20.951 E4385.45537
;WIDTH:5.18214
G1 X41.296 Y21.169 E4386.69506
;WIDTH:5.13875
G1 X41.274 Y21.388 E4387.92903
;WIDTH:5.09536
G1 X41.252 Y21.607 E4389.15109
;WIDTH:5.05197
G1 X41.252 Y111.576 E4883.81063
;WIDTH:5.09536
G1 X41.274 Y112.013 E4886.24003
;WIDTH:5.14495
G1 X41.299 Y112.138 E4886.95569
;WIDTH:5.19453
G1 X41.324 Y112.263 E4887.67923
;WIDTH:5.24412
G1 X41.348 Y112.388 E4888.40955
;WIDTH:5.2937
G1 X41.373 Y112.513 E4889.14886
;WIDTH:5.34329
G1 X41.398 Y112.638 E4889.89605
;WIDTH:5.39287
G1 X41.423 Y112.763 E4890.65112
;WIDTH:5.44246
G1 X41.448 Y112.888 E4891.41408
G1 X41.498 Y112.912 E4891.74603
;WIDTH:5.39353
G1 X41.548 Y112.937 E4892.0772
;WIDTH:5.3446
G1 X41.598 Y112.961 E4892.40238
;WIDTH:5.29566
G1 X41.648 Y112.985 E4892.72417
;WIDTH:5.24674
G1 X41.699 Y113.01 E4893.05025
;WIDTH:5.1978
G1 X41.749 Y113.034 E4893.36527
;WIDTH:5.14887
G1 X41.799 Y113.059 E4893.67938
;WIDTH:5.09994
G1 X41.849 Y113.083 E4893.98763
;WIDTH:5.05101
G1 X41.922 Y113.107 E4894.41003
;WIDTH:5.00357
G1 X41.995 Y113.131 E4894.82789
;WIDTH:4.95612
G1 X42.068 Y113.154 E4895.23955
;WIDTH:4.90867
G1 X42.142 Y113.178 E4895.65337
;WIDTH:4.86122
